webgl/2d-logo.svg

<?xml version="1.0" encoding="utf-8"?>
<svg xmlns="http://www.w3.org/2000/svg" xmlns:xlink="http://www.w3.org/1999/xlink" version="1.1" class="page" pageAlignment="none" x="0px" y="0px" width="80px" height="80px" viewBox="0 0 80 80" enable-background="new 0 0 65 65" xml:space="preserve">
  <title>Sparkbox</title>
  <defs></defs>
  <g type="LAYER" name="workspace" id="workspace" locked="true"/>
  <g id="GROUP" type="LAYER" name="GROUP">
    <path class="logo--path logo--icon" fill="#000000" d="M65.64150721211729,38.938742821073106 L22.74827233442432,38.938742821073106 L49.54228541530226,20.865544226593958 L41.384083308789506,34.711094060765305 C41.35379381149814,34.77231759639099 41.33123775826156,34.84063016608609 41.33123775826156,34.91732085193649 C41.33123775826156,35.15383714039905 41.523930891279285,35.34588586343139 41.76302508179848,35.34588586343139 L41.76302508179848,35.34717468340216 L45.00400758273814,35.34717468340216 L45.00400758273814,35.34395237136013 L52.70077740946552,35.34395237136013 C52.74717833590944,35.34588586343139 52.78906813034057,35.34717468340216 52.83224687580002,35.34717468340216 C56.96580470113412,35.34717468340216 60.315700877286794,31.995989687278716 60.315700877286794,27.864365222958316 C60.315700877286794,24.05561453801937 57.469126906408164,20.910656333067106 53.78926804786216,20.441490478169392 L59.255566375167824,11.156774569115997 C59.306478564682074,11.084595198758961 59.332901339946055,11.002748957804645 59.332901339946055,10.91510258138621 C59.332901339946055,10.67729732878958 59.140208206928314,10.484604195771855 58.90369191846576,10.484604195771855 C58.81217875449115,10.484604195771855 58.72839916562891,10.512960371366795 58.6600865959338,10.562583688487257 L58.6600865959338,10.560650314367804 L53.60688626095588,13.969192150301035 L53.603663948913855,13.976281184370453 L44.097254321262405,20.38477807455649 L22.358374936376087,20.38477807455649 C22.13023650195371,20.38477807455649 21.942054632006318,20.565226500449082 21.931098744851944,20.79400934485684 L21.931098744851944,35.33815228831904 L12.667650055958598,41.58682344483535 C12.538758321305925,41.6635139996282 12.450467482479086,41.80013927007596 12.450467482479086,41.95867605271735 C12.450467482479086,42.194547931194535 12.645094002722024,42.385307703198556 12.883543704621305,42.385307703198556 L17.633204053835343,42.385307703198556 L17.644159809932162,42.37950762015746 L55.78515648877748,42.37950762015746 L31.02376597019027,59.080653689233 L38.34159402390869,46.654846257937486 C38.38992844242386,46.57751129315926 38.42344025175725,46.49953178733811 38.42344025175725,46.40415190133609 C38.42344025175725,46.17085779385799 38.241702874836335,45.98009815291152 38.01034225942949,45.974942479855805 L22.359663756346848,45.974942479855805 C22.12443641891261,45.974942479855805 21.931098744851944,46.1650577108169 21.931098744851944,46.40415190133609 L21.931098744851944,60.508129536163636 C21.931098744851944,60.74077923365635 22.11928074585689,60.92896110360373 22.35257472227743,60.931538874602815 L25.93640928483603,60.931538874602815 L21.31370745342427,68.78684548397159 C21.26730639592281,68.85515818472425 21.240239079615897,68.93378210053079 21.240239079615897,69.02593967449079 C21.240239079615897,69.26116701192502 21.434221163661938,69.45579363701401 21.670093042139115,69.45579363701401 C21.764183977112815,69.45579363701401 21.84796356597507,69.422926237666 21.91949857876974,69.3752362291362 L34.42586315582796,60.93798349868686 L52.83224687580002,60.93798349868686 C56.96580470113412,60.93798349868686 60.315700877286794,57.58808745359173 60.315700877286794,53.45646298927132 C60.315700877286794,50.356616890792225 58.43194816151142,47.6937136578482 55.74326669434635,46.559466371935464 L65.84064496921906,39.750760737589765 C65.97920346962296,39.67922585585264 66.07136104358295,39.53551155133546 66.07136104358295,39.368596783596324 C66.07136104358295,39.13143595409083 65.88060140263649,38.938742821073106 65.64150721211729,38.938742821073106 L65.64150721211729,38.938742821073106 Z M52.79229044238258,23.82876518568286 C52.803890739522345,23.82876518568286 52.82193552968859,23.826831824669163 52.83224687580002,23.826831824669163 C55.0640071951925,23.826831824669163 56.871713766160426,25.633249444608765 56.871713766160426,27.864365222958316 C56.871713766160426,30.09548113236542 55.0640071951925,31.90318770333334 52.83224687580002,31.90318770333334 C52.82193552968859,31.90318770333334 52.803890739522345,31.90189875230502 52.79229044238258,31.90189875230502 L47.031474603030695,31.90318770333334 L51.792735065903926,23.82876518568286 L52.79229044238258,23.82876518568286 L52.79229044238258,23.82876518568286 Z M25.373796904949998,23.826831824669163 L38.99829733876841,23.826831824669163 L25.373796904949998,33.01358998498117 L25.373796904949998,23.826831824669163 L25.373796904949998,23.826831824669163 Z M25.373796904949998,57.49270756758972 L25.373796904949998,49.41699609891092 L32.72255899700273,49.41699609891092 L27.965165125099354,57.49270756758972 L25.373796904949998,57.49270756758972 L25.373796904949998,57.49270756758972 Z M56.871713766160426,53.45646298927132 C56.871713766160426,55.6830676356081 55.0640071951925,57.49270756758972 52.83224687580002,57.49270756758972 L39.535775894418784,57.49270756758972 L51.505306587927116,49.41957400096756 L52.83224687580002,49.41957400096756 C55.0640071951925,49.41957400096756 56.871713766160426,51.22599162090716 56.871713766160426,53.45646298927132 L56.871713766160426,53.45646298927132 Z "/>
  </g>
</svg>

<svg xmlns="http://www.w3.org/2000/svg" class="page" width="80" height="80" viewBox="0 0 80 80"><title>Sparkbox</title><path class="logo--path logo--icon" d="M65.642 38.939H22.748l26.794-18.073-8.158 13.845a.43.43 0 0 0 .379.635v.001h3.241v-.003h7.697l.131.003a7.483 7.483 0 0 0 .957-14.906l5.467-9.284a.413.413 0 0 0 .077-.242.43.43 0 0 0-.43-.43.411.411 0 0 0-.243.078v-.002l-5.053 3.408-.003.007-9.507 6.409H22.358a.429.429 0 0 0-.427.409v14.544l-9.263 6.249a.434.434 0 0 0-.218.372.43.43 0 0 0 .434.426h4.75l.01-.005h38.141l-24.761 16.7 7.318-12.425a.46.46 0 0 0 .081-.25.425.425 0 0 0-.413-.43H22.36a.429.429 0 0 0-.429.43v14.103c0 .233.188.421.422.424h3.583l-4.622 7.855a.415.415 0 0 0-.074.239c0 .235.194.43.43.43a.447.447 0 0 0 .25-.08l12.506-8.438h18.406a7.482 7.482 0 0 0 7.484-7.482c0-3.1-1.884-5.762-4.573-6.897l10.098-6.808a.427.427 0 0 0 .23-.382c0-.238-.19-.43-.43-.43zm-12.85-15.11l.04-.002a4.037 4.037 0 1 1 0 8.076l-.04-.001-5.76.001 4.76-8.074h1zm-27.418-.002h13.624l-13.624 9.187v-9.187zm0 33.666v-8.076h7.349l-4.758 8.076h-2.591zm31.498-4.037a4.039 4.039 0 0 1-4.04 4.037H39.536l11.97-8.073h1.326a4.037 4.037 0 0 1 4.04 4.036z"/></svg>
